X: 1
T:Three Little Drummers
C:Trad
R:Jig
M:6/8
K:ADor
Z:From O'Neills.
L:1/8
gf|eAA eAA|BAB GBd|eAA eAA | def gfg | eAA eAA | BAB GBd | def gdB | BAA
 A2 :|
d|:eaa eaa|egg egg|eaa eaa| def gdB| eaa eaa| egg egg|def gdB| BAA A2 :|
e|:eaa a^ga|bab ged| eaa a^ga | bab g2d |eaa a^ga|bab ged| def gdB | BAA
 A2 :|
